X: 1
T: Fisher Lads
M: 4/4
L: 1/8
R: hornpipe
K: Gmaj
|:Bc|d^cdB gfge| d^cdB gfge| d^cdB d=ccB|BAcB A2 Bc|
d^cdB gfge|d^cdB gfge|dBec BGAF|G/A/B/c/ d>B G2:|
|:DC|B,DGB DGBd|GBdg Bdgb|dced dccd|BAA/B/c/B/ A2 Bc|
B,DGB DGBd|GBdg Bdgb|dBec BGAF|G/A/B/c/ d>B G2:|
